src/_img/weakrefs/after-stop.svg

<?xml version="1.0" encoding="UTF-8"?>
<!DOCTYPE svg PUBLIC "-//W3C//DTD SVG 1.1//EN" "http://www.w3.org/Graphics/SVG/1.1/DTD/svg11.dtd">
<svg xmlns="http://www.w3.org/2000/svg" xmlns:xlink="http://www.w3.org/1999/xlink" version="1.1"  width="504px" height="175px" viewBox="-2 -2 502 173" content="&lt;mxfile host=&quot;app.diagrams.net&quot; modified=&quot;2020-06-18T21:30:33.447Z&quot; agent=&quot;5.0 (Macintosh; Intel Mac OS X 10_15_4) AppleWebKit/537.36 (KHTML, like Gecko) Chrome/83.0.4103.106 Safari/537.36&quot; version=&quot;13.2.6&quot; etag=&quot;TVolWvjkhuK8RsRiwtMG&quot; type=&quot;google&quot;&gt;&lt;diagram id=&quot;honrMr97Mx5EEeplKzmv&quot;&gt;7VhLb9swDP41AbZDC79iJ8c2bbdDCwzIYetRsxlbq2wGspI4+/WTbfqhuGnTJtl2aA+p+ImkKJH8QmTkztLii2TL5AEjECPHioqRezNynKnn688S2NaA77g1EEse1ZDdAXP+Gwi0CF3xCHJDUSEKxZcmGGKWQagMjEmJG1NtgcI8dcliGADzkIkh+p1HKqnRiRN0+FfgcdKcbPvTeidljTLdJE9YhJse5N6O3JlEVPUqLWYgyrdr3qW2u9uz2wYmIVOHGDi1wZqJFd1NJTy/zDF8AkUhqm1zb4j0M5CIUiUYY8bEbYdeS1xlEZTOLS2FmPJQr2297vTvEZcE/gKltpRftlKooUSlgnah4OpH6epyTNJjb+emoFMqYdsImZLbnlEpPvb3OrNKauwWmKk7lnJRArMqbseasyzX/x7mpECR2p6W68cpX8R4+hxXMiSIiloxGQNlIxgmyG7TrtsFMAUdllaRIJjia9M7o8KNW70ut3pB6X0+1e4g1Q+45ll8tY71fZeYlRHtZlxBocyk5EriE8xQoKxUXKv6K1+IC9HgmXanISZ4nGkx1L5B49drkIrrRrqijZRHUVU4m4QrmC9Z9XYbzRovFtOr2RLsJwhdcxHInZByfYa+NTkl6RqVwlRjXofdw6LMkLOTe7/NfXkXKPY23p68kkFABEAM6Pgkbzo+sSeEJT0uGVvHV4L3fNMLnivIdJr+m7YP3tX3wT9p/H6XT99aDRfWpeX7gVkSlKaDiYC8f0NeNnLjemz5hlvX3qmgmrHIqv9VseOoiYf8XDRy4wcXixzUoA7byx5UmuP9JPXBTX+Lmzz3AHKyzkRO/qACPsG6+mqyGoLKPx9NUe+hpZZhDHrpxoxTEUy/mA6YMoJj+OfkU0YwSN+eWfKje8/UvbZjdq87GXbvuSaLybB5Q4H5SsLxLXuyqcLpTxXtIPHaVOEYU4V96qY/oNHfPFU8M1TY/kmGCm/8ylBRs9FgqLiSkm17astSIX/hHN82z/HGL84og7hMfb2oI9ixPukIMx30wN7B+oMDzzXBeDt1cz4O1GL3c01dLt1vXu7tHw==&lt;/diagram&gt;&lt;/mxfile&gt;" style="background-color: rgb(255, 255, 255);"><defs/><g><path d="M 90 50 L 89.49 50 L 90.73 60.61 L 90.35 71.21 L 90.41 81.82 L 90.39 92.42 L 89.87 103.03 L 90 113.63" fill="none" stroke="#000000" stroke-linejoin="round" stroke-linecap="round" stroke-miterlimit="10" pointer-events="stroke"/><path d="M 90 118.88 L 90.07 118.92 L 89.37 117.52 L 88.76 116.16 L 87.77 114.62 L 87.39 113.37 L 86.5 111.88 L 86.45 111.79 L 87.24 112.3 L 87.91 112.6 L 88.68 113.09 L 89.34 113.37 L 90 113.63 L 90.01 113.66 L 90.63 113.14 L 91.31 112.74 L 92.02 112.42 L 92.79 112.2 L 93.5 111.88 L 93.39 111.83 L 92.59 113.18 L 92.1 114.68 L 91.58 116.17 L 90.71 117.49 L 90 118.88 Z Z" fill="#000000" stroke="#000000" stroke-linejoin="round" stroke-linecap="round" stroke-miterlimit="10" pointer-events="all"/><g transform="translate(-0.5 -0.5)"><switch><foreignObject style="overflow: visible; text-align: left;" pointer-events="none" width="100%" height="100%" requiredFeatures="http://www.w3.org/TR/SVG11/feature#Extensibility"><div xmlns="http://www.w3.org/1999/xhtml" style="display: flex; align-items: unsafe center; justify-content: unsafe center; width: 1px; height: 1px; padding-top: 85px; margin-left: 90px;"><div style="box-sizing: border-box; font-size: 0; text-align: center; "><div style="display: inline-block; font-size: 14px; font-family: Comic Sans MS; color: #000000; line-height: 1.2; pointer-events: all; background-color: #ffffff; white-space: nowrap; ">this.socket</div></div></div></foreignObject><text x="90" y="89" fill="#000000" font-family="Comic Sans MS" font-size="14px" text-anchor="middle">this.socket</text></switch></g><path d="M 0 0 L 0 -0.5 L 10 -0.11 L 20 0.03 L 30 -0.62 L 40 0.24 L 50 -0.73 L 60 -0.48 L 70 -0.62 L 80 -0.72 L 90 0.7 L 100 0.75 L 110 -0.15 L 120 0.43 L 130 0.02 L 140 -0.14 L 150 -0.43 L 160 0.62 L 170 -0.03 L 180 0 L 179.93 0 L 180.55 10 L 179.52 20 L 179.43 30 L 179.68 40 L 180 50 L 180 50.58 L 170 50.54 L 160 50.27 L 150 50.73 L 140 49.89 L 130 49.96 L 120 49.47 L 110 50.5 L 100 49.27 L 90 50.62 L 80 49.36 L 70 49.33 L 60 50.22 L 50 50.39 L 40 49.98 L 30 50.54 L 20 50.46 L 10 50.34 L 0 50 L 0.42 50 L 0.33 40 L -0.47 30 L 0.06 20 L 0.16 10 L 0 0 L 0 0 Z Z" fill="none" stroke="#000000" stroke-linejoin="round" stroke-linecap="round" stroke-miterlimit="10" pointer-events="all"/><g transform="translate(-0.5 -0.5)"><switch><foreignObject style="overflow: visible; text-align: left;" pointer-events="none" width="100%" height="100%" requiredFeatures="http://www.w3.org/TR/SVG11/feature#Extensibility"><div xmlns="http://www.w3.org/1999/xhtml" style="display: flex; align-items: unsafe center; justify-content: unsafe center; width: 180px; height: 1px; padding-top: 23px; margin-left: 1px;"><div style="box-sizing: border-box; font-size: 0; text-align: center; "><div style="display: inline-block; font-size: 16px; font-family: Comic Sans MS; color: #000000; line-height: 1.2; pointer-events: all; white-space: normal; word-wrap: normal; ">MovingAvgComponent</div></div></div></foreignObject><text x="91" y="28" fill="#000000" font-family="Comic Sans MS" font-size="16px" text-anchor="middle">MovingAvgComponent</text></switch></g><path d="M 436 50 L 435.96 50 L 435.76 57 L 435.95 64 L 436.03 71 L 435.77 78 L 436 85 L 436 84.79 L 435 85.14 L 434 85.14 L 433 85.14 L 432 85.05 L 431 85 L 431.09 85 L 431.05 90.73 L 431.19 96.45 L 430.97 102.18 L 430.78 107.91 L 431 113.63" fill="none" stroke="#000000" stroke-linejoin="round" stroke-linecap="round" stroke-miterlimit="10" pointer-events="stroke"/><path d="M 431 118.88 L 430.94 118.85 L 430.08 117.37 L 429.45 116.01 L 428.88 114.67 L 428.26 113.31 L 427.5 111.88 L 427.58 112.04 L 428.14 112.11 L 428.79 112.37 L 429.53 112.79 L 430.24 113.16 L 431 113.63 L 430.91 113.45 L 431.64 113.17 L 432.36 112.86 L 433.01 112.4 L 433.72 112.07 L 434.5 111.88 L 434.48 111.87 L 433.69 113.23 L 432.9 114.58 L 432.39 116.08 L 431.6 117.43 L 431 118.88 Z Z" fill="#000000" stroke="#000000" stroke-linejoin="round" stroke-linecap="round" stroke-miterlimit="10" pointer-events="all"/><g transform="translate(-0.5 -0.5)"><switch><foreignObject style="overflow: visible; text-align: left;" pointer-events="none" width="100%" height="100%" requiredFeatures="http://www.w3.org/TR/SVG11/feature#Extensibility"><div xmlns="http://www.w3.org/1999/xhtml" style="display: flex; align-items: unsafe center; justify-content: unsafe center; width: 1px; height: 1px; padding-top: 85px; margin-left: 460px;"><div style="box-sizing: border-box; font-size: 0; text-align: center; "><div style="display: inline-block; font-size: 14px; font-family: Comic Sans MS; color: #000000; line-height: 1.2; pointer-events: all; background-color: #ffffff; white-space: nowrap; ">this.listener</div></div></div></foreignObject><text x="460" y="89" fill="#000000" font-family="Comic Sans MS" font-size="14px" text-anchor="middle">this.listener</text></switch></g><path d="M 360 0 L 360 -0.47 L 370 0.71 L 380 0.34 L 390 -0.44 L 400 0.31 L 410 -0.22 L 420 0.11 L 430 -0.01 L 440 0.36 L 450 -0.53 L 460 0 L 460.23 0 L 460.03 10 L 459.53 20 L 460.54 30 L 459.3 40 L 460 50 L 460 49.29 L 450 49.81 L 440 50.56 L 430 49.8 L 420 49.34 L 410 49.47 L 400 49.35 L 390 50.2 L 380 49.8 L 370 50.41 L 360 50 L 359.42 50 L 360.67 40 L 359.72 30 L 359.6 20 L 359.9 10 L 360 0 L 360 0 Z Z" fill="none" stroke="#000000" stroke-linejoin="round" stroke-linecap="round" stroke-miterlimit="10" pointer-events="all"/><g transform="translate(-0.5 -0.5)"><switch><foreignObject style="overflow: visible; text-align: left;" pointer-events="none" width="100%" height="100%" requiredFeatures="http://www.w3.org/TR/SVG11/feature#Extensibility"><div xmlns="http://www.w3.org/1999/xhtml" style="display: flex; align-items: unsafe center; justify-content: unsafe center; width: 100px; height: 1px; padding-top: 23px; margin-left: 361px;"><div style="box-sizing: border-box; font-size: 0; text-align: center; "><div style="display: inline-block; font-size: 16px; font-family: Comic Sans MS; color: #000000; line-height: 1.2; pointer-events: all; white-space: normal; word-wrap: normal; ">MovingAvg</div></div></div></foreignObject><text x="411" y="28" fill="#000000" font-family="Comic Sans MS" font-size="16px" text-anchor="middle">MovingAvg</text></switch></g><path d="M 130 145 L 130 145.07 L 140.2 145.11 L 150.4 145.66 L 160.6 144.95 L 170.81 144.92 L 181.01 144.47 L 191.21 144.31 L 201.41 144.84 L 211.61 144.62 L 221.81 144.94 L 232.01 144.8 L 242.22 144.43 L 252.42 144.98 L 262.62 145.06 L 272.82 145.65 L 283.02 145.47 L 293.22 145.61 L 303.42 145.47 L 313.63 144.5 L 323.83 144.55 L 334.03 145.45 L 344.23 144.48 L 354.43 145.31 L 364.63 145" fill="none" stroke="#000000" stroke-linejoin="round" stroke-linecap="round" stroke-miterlimit="10" pointer-events="stroke"/><path d="M 369.88 145 L 369.79 144.82 L 368.39 145.52 L 367.06 146.36 L 365.76 147.25 L 364.18 147.6 L 362.88 148.5 L 362.66 148.39 L 363.32 147.84 L 363.41 147.01 L 363.99 146.43 L 364.14 145.63 L 364.63 145 L 364.5 144.94 L 364.12 144.22 L 364.12 143.69 L 363.64 142.93 L 363.43 142.3 L 362.88 141.5 L 362.92 141.57 L 364.28 142.21 L 365.78 143.09 L 367.13 143.7 L 368.55 144.43 L 369.88 145 Z Z" fill="#000000" stroke="#000000" stroke-linejoin="round" stroke-linecap="round" stroke-miterlimit="10" pointer-events="all"/><g transform="translate(-0.5 -0.5)"><switch><foreignObject style="overflow: visible; text-align: left;" pointer-events="none" width="100%" height="100%" requiredFeatures="http://www.w3.org/TR/SVG11/feature#Extensibility"><div xmlns="http://www.w3.org/1999/xhtml" style="display: flex; align-items: unsafe center; justify-content: unsafe center; width: 1px; height: 1px; padding-top: 145px; margin-left: 251px;"><div style="box-sizing: border-box; font-size: 0; text-align: center; "><div style="display: inline-block; font-size: 14px; font-family: Comic Sans MS; color: #000000; line-height: 1.2; pointer-events: all; background-color: #ffffff; white-space: nowrap; ">(event listeners)</div></div></div></foreignObject><text x="251" y="149" fill="#000000" font-family="Comic Sans MS" font-size="14px" text-anchor="middle">(event listeners)</text></switch></g><path d="M 50 120 L 50 119.5 L 60 120.24 L 70 120.55 L 80 119.4 L 90 119.42 L 100 119.46 L 110 120.03 L 120 119.8 L 130 120 L 130.25 120 L 130.46 130 L 130.37 140 L 129.94 150 L 130.2 160 L 130 170 L 130 169.25 L 120 169.65 L 110 170.5 L 100 169.99 L 90 169.69 L 80 170.65 L 70 169.34 L 60 169.38 L 50 170 L 50.64 170 L 49.31 160 L 50.26 150 L 49.39 140 L 50.61 130 L 50 120 L 50 120 Z Z" fill="none" stroke="#000000" stroke-linejoin="round" stroke-linecap="round" stroke-miterlimit="10" pointer-events="all"/><g transform="translate(-0.5 -0.5)"><switch><foreignObject style="overflow: visible; text-align: left;" pointer-events="none" width="100%" height="100%" requiredFeatures="http://www.w3.org/TR/SVG11/feature#Extensibility"><div xmlns="http://www.w3.org/1999/xhtml" style="display: flex; align-items: unsafe center; justify-content: unsafe center; width: 80px; height: 1px; padding-top: 143px; margin-left: 51px;"><div style="box-sizing: border-box; font-size: 0; text-align: center; "><div style="display: inline-block; font-size: 16px; font-family: Comic Sans MS; color: #000000; line-height: 1.2; pointer-events: all; white-space: normal; word-wrap: normal; ">socket</div></div></div></foreignObject><text x="91" y="148" fill="#000000" font-family="Comic Sans MS" font-size="16px" text-anchor="middle">socket</text></switch></g><path d="M 391 120 L 390.87 120 L 391.19 113 L 390.77 106 L 391.09 99 L 390.95 92 L 391 85 L 391 84.93 L 390 84.98 L 389 85.09 L 388 84.86 L 387 85.21 L 386 85 L 386.11 85 L 385.97 79.27 L 385.84 73.55 L 385.87 67.82 L 386.19 62.09 L 386 56.37" fill="none" stroke="#000000" stroke-linejoin="round" stroke-linecap="round" stroke-miterlimit="10" pointer-events="stroke"/><path d="M 386 51.12 L 385.95 51.09 L 386.69 52.51 L 387.25 53.84 L 387.89 55.21 L 388.65 56.64 L 389.5 58.12 L 389.44 58 L 388.75 57.67 L 388.07 57.35 L 387.37 57.01 L 386.74 56.81 L 386 56.37 L 386.08 56.52 L 385.22 56.55 L 384.63 57.12 L 383.8 57.22 L 383.16 57.68 L 382.5 58.12 L 382.72 58.23 L 383.37 56.8 L 383.93 55.33 L 384.63 53.93 L 385.37 52.55 L 386 51.12 Z Z" fill="#000000" stroke="#000000" stroke-linejoin="round" stroke-linecap="round" stroke-miterlimit="10" pointer-events="all"/><g transform="translate(-0.5 -0.5)"><switch><foreignObject style="overflow: visible; text-align: left;" pointer-events="none" width="100%" height="100%" requiredFeatures="http://www.w3.org/TR/SVG11/feature#Extensibility"><div xmlns="http://www.w3.org/1999/xhtml" style="display: flex; align-items: unsafe center; justify-content: unsafe center; width: 1px; height: 1px; padding-top: 85px; margin-left: 370px;"><div style="box-sizing: border-box; font-size: 0; text-align: center; "><div style="display: inline-block; font-size: 14px; font-family: Comic Sans MS; color: #000000; line-height: 1.2; pointer-events: all; background-color: #ffffff; white-space: nowrap; ">(closure)</div></div></div></foreignObject><text x="370" y="89" fill="#000000" font-family="Comic Sans MS" font-size="14px" text-anchor="middle">(closure)</text></switch></g><path d="M 371 120 L 371 120.45 L 381 120.45 L 391 119.5 L 401 120.39 L 411 119.92 L 421 119.3 L 431 119.76 L 441 119.41 L 451 120 L 451.29 120 L 451.61 130 L 451.38 140 L 450.98 150 L 451.06 160 L 451 170 L 451 170.12 L 441 170.44 L 431 169.26 L 421 170.08 L 411 170.61 L 401 170.02 L 391 169.81 L 381 170.37 L 371 170 L 370.43 170 L 370.8 160 L 371.23 150 L 371.72 140 L 370.76 130 L 371 120 L 371 120 Z Z" fill="none" stroke="#000000" stroke-linejoin="round" stroke-linecap="round" stroke-miterlimit="10" pointer-events="all"/><g transform="translate(-0.5 -0.5)"><switch><foreignObject style="overflow: visible; text-align: left;" pointer-events="none" width="100%" height="100%" requiredFeatures="http://www.w3.org/TR/SVG11/feature#Extensibility"><div xmlns="http://www.w3.org/1999/xhtml" style="display: flex; align-items: unsafe center; justify-content: unsafe center; width: 80px; height: 1px; padding-top: 143px; margin-left: 372px;"><div style="box-sizing: border-box; font-size: 0; text-align: center; "><div style="display: inline-block; font-size: 16px; font-family: Comic Sans MS; color: #000000; line-height: 1.2; pointer-events: all; white-space: normal; word-wrap: normal; ">listener</div></div></div></foreignObject><text x="412" y="148" fill="#000000" font-family="Comic Sans MS" font-size="16px" text-anchor="middle">listener</text></switch></g></g><switch><g requiredFeatures="http://www.w3.org/TR/SVG11/feature#Extensibility"/><a transform="translate(0,-5)" xlink:href="https://desk.draw.io/support/solutions/articles/16000042487" target="_blank"><text text-anchor="middle" font-size="10px" x="50%" y="100%">Viewer does not support full SVG 1.1</text></a></switch></svg>

<svg xmlns="http://www.w3.org/2000/svg" xmlns:xlink="http://www.w3.org/1999/xlink" width="504" height="175" viewBox="-2 -2 502 173"><style>svg{background:#fff}.a,.s{stroke:#000;stroke-linejoin:round;stroke-linecap:round;stroke-miterlimit:10}.s{fill:none}rect{fill:#fff}text{font:14px "Comic Sans MS";text-anchor:middle}.b{font-size:16px}</style><path d="M90 50h-.5l1.2 10.6-.4 10.6.1 10.6v10.6l-.5 10.6.1 10.6" class="s"/><path d="M90 118.9h0l-.6-1.4-.6-1.3-1-1.6-.4-1.2-.9-1.5v-.1l.7.5.7.3.8.5.6.3.7.2h0l.6-.5.7-.4.7-.3.8-.2.7-.3h-.1l-.8 1.3-.5 1.5-.5 1.5-.9 1.3-.7 1.4z" class="a"/><path d="M0 0v-.5l10 .4L20 0l10-.6 10 .8 10-1 10 .3 10-.1 10-.1L90 .7h10l10-.8 10 .5 10-.4 10-.1 10-.3 10 1 10-.6h10l.6 10-1 10-.2 10 .3 10 .3 10v.6h-10l-10-.3-10 .4-10-.8h-10l-10-.4-10 1-10-1.2-10 1.3-10-1.2H70l-10 .8-10 .2-10-.4-10 .5H20l-10-.2L0 50h.4V40l-.9-10 .6-10V10L0 0h0z" class="s"/><text x="91" y="28" class="b">MovingAvgComponent</text><path d="M436 50h0l-.2 7 .1 7 .1 7-.2 7 .2 7v-.2l-1 .3h-3l-1-.1h0v5.7l.2 5.8-.2 5.7-.2 5.7.2 5.7" class="s"/><path d="M431 118.9h0l-1-1.5-.6-1.4-.5-1.3-.6-1.4-.8-1.4v.1l.6.1.7.3.7.4.7.4.8.4v-.1l.6-.3.8-.3.6-.5.7-.3.8-.2h0l-.8 1.3-.8 1.4-.5 1.5-.8 1.3-.6 1.5z" class="a"/><path d="M360 0v-.5l10 1.2 10-.4 10-.7 10 .7 10-.5 10 .3 10-.1 10 .4 10-1 10 .6h.2l-.2 10-.5 10 1 10-1.2 10 .7 10v-.7l-10 .5-10 .8-10-.8-10-.5-10 .2-10-.1-10 .8-10-.4-10 .6-10-.4h-.6l1.3-10-1-10-.1-10 .3-10 .1-10h0z" class="s"/><text x="411" y="28" class="b">MovingAvg</text><path d="M130 145h0l10.2.1 10.2.6 10.2-.8h10.2l10.2-.4 10.2-.2 10.2.5 10.2-.2 10.2.3 10.2-.1 10.2-.4 10.2.6h10.2l10.2.7 10.2-.2 10.2.1 10.2-.1 10.2-1h10.2l10.2 1 10.2-1 10.2.8 10.2-.3" class="s"/><path d="M369.9 145l-.1-.2-1.4.7-1.3.9-1.3.8-1.6.4-1.3.9-.2-.1.6-.6.1-.8.6-.6.1-.8.5-.6h-.1l-.4-.8v-.5l-.5-.8-.2-.6-.5-.8h0l1.4.7 1.5.9 1.3.6 1.4.7 1.4.6z" class="a"/><rect x="195" y="135" width="112" height="18"/><text x="251" y="149">(event listeners)</text><path d="M50 120v-.5l10 .7 10 .3 10-1.1h20l10 .6 10-.2 10 .2h.3l.2 10-.1 10-.5 10 .3 10-.2 10v-.8l-10 .5-10 .8-10-.5-10-.3-10 1-10-1.4H60l-10 .7h.6l-1.3-10 1-10-1-10 1.3-10-.6-10h0z" class="s"/><text x="91" y="148" class="b">socket</text><path d="M391 120h-.1l.3-7-.4-7 .3-7-.2-7 .1-7h0-2l-1-.1-1 .3-1-.2h.1l-.1-5.7-.2-5.8v-5.7l.4-5.7-.2-5.7" class="s"/><path d="M386 51.1h0l.7 1.4.6 1.3.6 1.4.8 1.4.8 1.5V58l-.8-.3-.6-.4-.7-.3-.7-.2-.7-.4v.1h-.8l-.6.6-.8.1-.6.5-.7.4.2.1.7-1.4.5-1.5.7-1.4.8-1.4.6-1.4z" class="a"/><rect x="0" y="77" width="500" height="16"/><text x="90" y="89">this.socket</text><text x="370" y="89">(closure)</text><text x="460" y="89">this.listener</text><path d="M371 120v.5h10l10-1 10 .9 10-.5 10-.6 10 .5 10-.4 10 .6h.3l.3 10-.2 10-.4 10v20.1l-10 .3-10-1.1-10 .8-10 .5-10-.6-10-.2-10 .6-10-.4h-.6l.4-10 .4-10 .5-10-1-10 .3-10h0z" class="s"/><text x="412" y="148" class="b">listener</text></svg>
